assets/svg/1F463.svg

<svg xmlns="http://www.w3.org/2000/svg" viewBox="0 0 64 64" enable-background="new 0 0 64 64"><g transform="translate(2)"><path d="m13.08 37.33c.064.066.126.141.191.211-.064-.07-.126-.144-.191-.211" fill="#da4a9a"/><g fill="#c2986b"><path d="m56.05 40.1c.54-5.606-4.291-10.65-10.787-11.281-6.498-.622-12.204 3.401-12.743 9.01-.427 4.403 3.067 5.62 7.745 6.247-.133 1.233-.256 2.51-.382 3.808-.869 9.01-1.607 15.61 3.99 16.15 5.606.539 12.08-23 12.177-23.936"/><path d="m32.375 19.678c2.669-.33 2.904 1.946 3.29 5.04.39 3.099.782 5.845-1.888 6.179-2.671.334-5.15-1.91-5.54-5-.385-3.1 1.467-5.882 4.138-6.218"/><path d="m40.12 18.533c2.109-.263 2.294 1.535 2.601 3.982.306 2.452.616 4.621-1.491 4.885-2.113.265-4.073-1.508-4.378-3.956-.31-2.448 1.157-4.649 3.268-4.911"/><path d="m49.626 19.515c2.047.574 1.526 2.304.86 4.681-.664 2.377-1.222 4.5-3.265 3.928-2.054-.575-3.173-2.968-2.51-5.345.667-2.377 2.867-3.837 4.915-3.264"/><path d="m55.676 21.802c1.798.504 1.338 2.02.755 4.109-.585 2.086-1.072 3.947-2.866 3.445-1.801-.504-2.783-2.603-2.201-4.688.584-2.084 2.516-3.366 4.312-2.866"/><path d="m58.38 28.514c-1.438-.324-1.688.904-2.065 2.572-.378 1.67-.736 3.148.701 3.47 1.439.326 2.91-.766 3.287-2.431.375-1.67-.484-3.286-1.923-3.611"/></g><g fill="#c2986b"><path d="m2.158 18.16c.856-5.566 6.778-9.267 13.23-8.279 6.451.993 10.993 6.297 10.134 11.868-.668 4.374-4.356 4.694-9.04 4.15-.174 1.23-.369 2.495-.566 3.785-1.373 8.948-2.282 15.527-7.84 14.672-5.566-.854-6.06-25.26-5.915-26.2"/><path d="m30.13 4.193c-2.508-.975-3.294 1.172-4.43 4.082-1.139 2.906-2.195 5.472.311 6.453 2.507.981 5.461-.585 6.599-3.489 1.137-2.91.026-6.06-2.48-7.05"/><path d="m22.903 1.18c-1.979-.774-2.601.923-3.501 3.221-.898 2.3-1.731 4.326.245 5.1 1.983.778 4.32-.46 5.216-2.757.902-2.298.023-4.793-1.96-5.564"/><path d="m13.45-.208c-2.126.054-2.047 1.858-1.987 4.327.06 2.466.077 4.663 2.199 4.611 2.132-.052 3.806-2.097 3.748-4.565-.063-2.467-1.837-4.425-3.96-4.373"/><path d="m7.02.522c-1.867.046-1.794 1.63-1.742 3.798.053 2.165.068 4.088 1.93 4.04 1.869-.046 3.337-1.838 3.286-4-.054-2.165-1.609-3.882-3.474-3.839"/><path d="m2.753 6.363c1.473.042 1.415 1.292 1.369 3-.044 1.711-.061 3.234-1.533 3.192-1.475-.04-2.632-1.458-2.588-3.165.048-1.711 1.278-3.066 2.752-3.03"/></g></g></svg>

<?xml version="1.0" encoding="UTF-8" standalone="no"?>
<!-- Generator: Adobe Illustrator 16.0.0, SVG Export Plug-In . SVG Version: 6.00 Build 0)  -->

<svg
   xmlns:dc="http://purl.org/dc/elements/1.1/"
   xmlns:cc="http://creativecommons.org/ns#"
   xmlns:rdf="http://www.w3.org/1999/02/22-rdf-syntax-ns#"
   xmlns:svg="http://www.w3.org/2000/svg"
   xmlns="http://www.w3.org/2000/svg"
   xmlns:sodipodi="http://sodipodi.sourceforge.net/DTD/sodipodi-0.dtd"
   xmlns:inkscape="http://www.inkscape.org/namespaces/inkscape"
   version="1.1"
   id="Layer_1"
   x="0px"
   y="0px"
   width="64px"
   height="64px"
   viewBox="0 0 64 64"
   enable-background="new 0 0 64 64"
   xml:space="preserve"
   inkscape:version="0.48.5 r10040"
   sodipodi:docname="1F463.svg"
   inkscape:export-filename="D:\TESTINGEMOJI\SVGTEST\1F463.png"
   inkscape:export-xdpi="90"
   inkscape:export-ydpi="90"><metadata
   id="metadata3085"><rdf:RDF><cc:Work
       rdf:about=""><dc:format>image/svg+xml</dc:format><dc:type
         rdf:resource="http://purl.org/dc/dcmitype/StillImage" /><dc:title></dc:title></cc:Work></rdf:RDF></metadata><defs
   id="defs3083" /><sodipodi:namedview
   pagecolor="#ffffff"
   bordercolor="#666666"
   borderopacity="1"
   objecttolerance="10"
   gridtolerance="10"
   guidetolerance="10"
   inkscape:pageopacity="0"
   inkscape:pageshadow="2"
   inkscape:window-width="640"
   inkscape:window-height="480"
   id="namedview3081"
   showgrid="false"
   inkscape:zoom="3.6875"
   inkscape:cx="32"
   inkscape:cy="32"
   inkscape:window-x="498"
   inkscape:window-y="248"
   inkscape:window-maximized="0"
   inkscape:current-layer="Layer_1" />
<g
   id="g3049"
   transform="translate(2,0)">
	<path
   d="m 13.084,37.329 c 0.064,0.066 0.126,0.141 0.191,0.211 -0.064,-0.07 -0.126,-0.144 -0.191,-0.211 z"
   id="path3051"
   inkscape:connector-curvature="0"
   style="fill:#da4a9a" />
	<g
   id="g3053">
		<path
   d="M 56.051,40.1 C 56.591,34.494 51.76,29.45 45.264,28.819 38.766,28.197 33.06,32.22 32.521,37.831 c -0.427,4.403 3.067,5.62 7.745,6.247 -0.133,1.233 -0.256,2.51 -0.382,3.808 -0.869,9.011 -1.607,15.61 3.99,16.15 C 49.48,64.575 55.958,41.035 56.051,40.1 z"
   id="path3055"
   inkscape:connector-curvature="0"
   style="fill:#c2986b" />
		<path
   d="m 32.375,19.678 c 2.669,-0.33 2.904,1.946 3.29,5.044 0.39,3.099 0.782,5.845 -1.888,6.179 -2.671,0.334 -5.15,-1.91 -5.54,-5.005 -0.385,-3.1 1.467,-5.882 4.138,-6.218 z"
   id="path3057"
   inkscape:connector-curvature="0"
   style="fill:#c2986b" />
		<path
   d="m 40.12,18.533 c 2.109,-0.263 2.294,1.535 2.601,3.982 0.306,2.452 0.616,4.621 -1.491,4.885 -2.113,0.265 -4.073,-1.508 -4.378,-3.956 -0.31,-2.448 1.157,-4.649 3.268,-4.911 z"
   id="path3059"
   inkscape:connector-curvature="0"
   style="fill:#c2986b" />
		<path
   d="m 49.626,19.515 c 2.047,0.574 1.526,2.304 0.86,4.681 -0.664,2.377 -1.222,4.5 -3.265,3.928 -2.054,-0.575 -3.173,-2.968 -2.51,-5.345 0.667,-2.377 2.867,-3.837 4.915,-3.264 z"
   id="path3061"
   inkscape:connector-curvature="0"
   style="fill:#c2986b" />
		<path
   d="m 55.676,21.802 c 1.798,0.504 1.338,2.022 0.755,4.109 -0.585,2.086 -1.072,3.947 -2.866,3.445 -1.801,-0.504 -2.783,-2.603 -2.201,-4.688 0.584,-2.084 2.516,-3.366 4.312,-2.866 z"
   id="path3063"
   inkscape:connector-curvature="0"
   style="fill:#c2986b" />
		<path
   d="m 58.376,28.514 c -1.438,-0.324 -1.688,0.904 -2.065,2.572 -0.378,1.67 -0.736,3.148 0.701,3.47 1.439,0.326 2.91,-0.766 3.287,-2.431 0.375,-1.67 -0.484,-3.286 -1.923,-3.611 z"
   id="path3065"
   inkscape:connector-curvature="0"
   style="fill:#c2986b" />
	</g>
	<g
   id="g3067">
		<path
   d="m 2.158,18.164 c 0.856,-5.566 6.778,-9.267 13.23,-8.279 6.451,0.993 10.993,6.297 10.134,11.868 -0.668,4.374 -4.356,4.694 -9.043,4.15 -0.174,1.23 -0.369,2.495 -0.566,3.785 C 14.54,38.636 13.631,45.215 8.073,44.36 2.507,43.506 2.017,19.096 2.158,18.164 z"
   id="path3069"
   inkscape:connector-curvature="0"
   style="fill:#c2986b" />
		<path
   d="m 30.129,4.193 c -2.508,-0.975 -3.294,1.172 -4.43,4.082 -1.139,2.906 -2.195,5.472 0.311,6.453 2.507,0.981 5.461,-0.585 6.599,-3.489 1.137,-2.91 0.026,-6.063 -2.48,-7.046 z"
   id="path3071"
   inkscape:connector-curvature="0"
   style="fill:#c2986b" />
		<path
   d="m 22.903,1.18 c -1.979,-0.774 -2.601,0.923 -3.501,3.221 -0.898,2.3 -1.731,4.326 0.245,5.1 1.983,0.778 4.32,-0.46 5.216,-2.757 0.902,-2.298 0.023,-4.793 -1.96,-5.564 z"
   id="path3073"
   inkscape:connector-curvature="0"
   style="fill:#c2986b" />
		<path
   d="M 13.45,-0.208 C 11.324,-0.154 11.403,1.65 11.463,4.119 11.523,6.585 11.54,8.782 13.662,8.73 15.794,8.678 17.468,6.633 17.41,4.165 17.347,1.698 15.573,-0.26 13.45,-0.208 z"
   id="path3075"
   inkscape:connector-curvature="0"
   style="fill:#c2986b" />
		<path
   d="M 7.022,0.522 C 5.155,0.568 5.228,2.152 5.28,4.32 5.333,6.485 5.348,8.408 7.21,8.362 9.079,8.316 10.547,6.524 10.496,4.361 10.442,2.196 8.887,0.479 7.022,0.522 z"
   id="path3077"
   inkscape:connector-curvature="0"
   style="fill:#c2986b" />
		<path
   d="M 2.753,6.363 C 4.226,6.405 4.168,7.655 4.122,9.364 4.078,11.075 4.061,12.598 2.589,12.556 1.114,12.516 -0.043,11.098 10e-4,9.391 0.049,7.68 1.279,6.325 2.753,6.363 z"
   id="path3079"
   inkscape:connector-curvature="0"
   style="fill:#c2986b" />
	</g>
</g>
</svg>
